X:3666
T: Light of the World
O:england
M: C|
L: 1/4
K: Em
FG \
| "Am6"B4- | "B7"BA FA | "Em"cB E2- | E2 FE \
| "B7"^D2 B,2 | G2 F2 | "Em"E4- | E2 "B+7"GF/G/ ||
|: "Em"E4- | EG FE | "Am"GF C2- | C2 AG \
| "D7"F4- | FE GF/E/ | "G"B,4- | B,2 FG |
| "Am6"B4- | "B7"BA FA | "Em"cB E2- | E2 FE \
| "B7"^D2 B,2 | G2 F2 | "Em"G4- | G2 FG |
| "Am6"B4- | "B7"BA FA | "Em"cB E2- | E2 FE \
| "B7"^D2 B,2 | G2 F2 | "Em"E4- | E3 z |]


